en/_assets/wiki/svg/convert-page.svg

<svg xmlns="http://www.w3.org/2000/svg" xmlns:xlink="http://www.w3.org/1999/xlink" width="13" height="13" class="yc-icon" fill="currentColor" stroke="none" aria-hidden="true"><svg viewBox="0 0 13 13" xmlns="http://www.w3.org/2000/svg"><path fill-rule="evenodd" clip-rule="evenodd" d="M13 2.16667H2.16667V0H13V2.16667ZM0 4.33333H2.16667V6.5H0V8.66667H2.16667V6.5H13V4.33333H2.16667V2.16667H0V4.33333ZM13 10.8333H2.16667V8.66667H13V10.8333ZM2.16667 10.8333V13H0V10.8333H2.16667Z"></path></svg></svg>

<svg xmlns="http://www.w3.org/2000/svg" width="13" height="13" fill="currentColor" aria-hidden="true" class="yc-icon"><svg xmlns="http://www.w3.org/2000/svg" viewBox="0 0 13 13"><path fill-rule="evenodd" d="M13 2.167H2.167V0H13v2.167ZM0 4.333h2.167V6.5H0v2.167h2.167V6.5H13V4.333H2.167V2.167H0v2.166Zm13 6.5H2.167V8.667H13v2.166Zm-10.833 0V13H0v-2.167h2.167Z" clip-rule="evenodd"/></svg></svg>
